Unicodia/Resources/Scripts/10AC0.svg

<?xml version="1.0" encoding="UTF-8" standalone="no"?>
<!-- Created with Inkscape (http://www.inkscape.org/) -->

<svg
   width="16"
   height="16"
   viewBox="0 0 16 16"
   version="1.1"
   id="svg5"
   inkscape:version="1.2.2 (732a01da63, 2022-12-09)"
   sodipodi:docname="10AC0.svg"
   inkscape:export-filename="..\0000.png"
   inkscape:export-xdpi="96"
   inkscape:export-ydpi="96"
   xml:space="preserve"
   xmlns:inkscape="http://www.inkscape.org/namespaces/inkscape"
   xmlns:sodipodi="http://sodipodi.sourceforge.net/DTD/sodipodi-0.dtd"
   xmlns="http://www.w3.org/2000/svg"
   xmlns:svg="http://www.w3.org/2000/svg"><sodipodi:namedview
     id="namedview7"
     pagecolor="#ffffff"
     bordercolor="#666666"
     borderopacity="1.0"
     inkscape:pageshadow="2"
     inkscape:pageopacity="0"
     inkscape:pagecheckerboard="0"
     inkscape:document-units="px"
     showgrid="true"
     width="16mm"
     units="px"
     inkscape:zoom="32"
     inkscape:cx="11.703125"
     inkscape:cy="10.4375"
     inkscape:window-width="1680"
     inkscape:window-height="998"
     inkscape:window-x="-8"
     inkscape:window-y="-8"
     inkscape:window-maximized="1"
     inkscape:current-layer="layer1"
     showguides="true"
     inkscape:guide-bbox="true"
     inkscape:snap-bbox="true"
     inkscape:bbox-paths="true"
     inkscape:bbox-nodes="true"
     inkscape:snap-global="true"
     inkscape:showpageshadow="2"
     inkscape:deskcolor="#ffffff"><inkscape:grid
       type="xygrid"
       id="grid828"
       originx="0"
       originy="0" /></sodipodi:namedview><defs
     id="defs2" /><g
     inkscape:label="Layer 1"
     inkscape:groupmode="layer"
     id="layer1"><rect
       style="opacity:1;fill:#ffff83;stroke:none;stroke-width:4.4376;stroke-linejoin:bevel;stop-color:#000000;fill-opacity:1"
       id="rect691"
       width="16"
       height="16"
       x="0"
       y="0" /><path
       d="M 3.4783428,12.48366 C 3.4783428,13.837416 2.9190073,14 2.2391714,14 1.5492192,14 1,13.859374 1,12.562091 V 12.117646 C 1,11.599544 1.079096,11.520271 1.079096,10.980392 V 10.261437 C 1.079096,6.0204959 2.8057442,5 5.2448211,5 7.0028547,5 9.6204934,6.0897403 11.20339,6.9934632 10.509268,4.7909508 10.59887,4.2361037 10.59887,3.4379077 c 0,-0.4006589 0,-1.4379085 1.713748,-1.4379085 0.471228,0 1.687382,0 1.687382,1.4640522 0,0.9733699 -0.263654,1.3701229 -0.263654,2.6405229 0,1.9234327 1.263655,3.5128627 1.263655,6.3529407 0,1.452667 -1.005205,1.542485 -1.634653,1.542485 -1.029691,0 -1.740112,-0.347682 -1.740112,-1.30719 0,-0.62587 0.263653,-1.817836 0.263653,-2.718955 -1.559495,-1.43972 -4.8223274,-2.7777765 -6.5913368,-2.7777765 -1.5771568,0 -1.9246705,0.9041297 -1.9246705,3.0653585 0,0.734988 0.105462,1.111417 0.1054611,2.222223 z"
       id="path644"
       style="fill:#f57900;stroke-width:1"
       sodipodi:nodetypes="ssssssscssssssscsss" /></g></svg>

<svg height="16" viewBox="0 0 16 16" width="16" xmlns="http://www.w3.org/2000/svg"><path d="m0 0h16v16h-16z" fill="#ffff83"/><path d="m3.48 12.48c0 1.36-.56 1.52-1.24 1.52-.69 0-1.24-.14-1.24-1.44v-.44c0-.52.08-.6.08-1.14v-.72c0-4.24 1.73-5.26 4.16-5.26 1.76 0 4.38 1.09 5.96 1.99-.69-2.2-.6-2.75-.6-3.55 0-.4 0-1.44 1.71-1.44.47 0 1.69 0 1.69 1.46 0 .97-.26 1.37-.26 2.64 0 1.92 1.26 3.51 1.26 6.35 0 1.45-1.01 1.54-1.63 1.54-1.03 0-1.74-.35-1.74-1.31 0-.63.26-1.82.26-2.72-1.56-1.44-4.82-2.78-6.59-2.78-1.58 0-1.92.9-1.92 3.07 0 .73.11 1.11.11 2.22z" fill="#f57900"/></svg>
